X: 315
T: Beyâtî Seyir
C: Şefik Gürmeriç
O: Turkey
F: http://compmusic.upf.edu/node/140
N: beyati--seyir--sofyan--1--sefik_gurmeric
N: makam= beyati
N: form= seyir
N: usul= sofyan = 4/4
M: 4/4
L: 1/16
K: C _2/4B   
Q: 1/4=60
%%MIDI tuningsystem comma53
c4 d4 d4 e4  | f2g2 f2e2 d2cB A4  | z4 f2e2 f4 g4  | \
w:   |   |   | 
a2g2 f2e2 eddc d4  | 
w:   | 
z4 d2_3/4e2 ^3/4fgfe d4  | ^3/4f2g2 a2_b2 a2g2 g2f2  | \
w:   |   | 
^3/4f2e2 e2d2 dfed c2B2  | 
w:   | 
c2d2 e2g2 f3e f4  | z4 f2f2 f2e4d2  | \
w:   |   | 
dcde d2c2 B3A G4  | 
w:   | 
A4 f2e2 e2d2 d2c2  | c3B cBBA A8  | |


